src/assets/icons/filters/categories/bookshelf_selected.svg

<svg width="48" height="47" viewBox="0 0 48 47" fill="none" xmlns="http://www.w3.org/2000/svg">
<path fill-rule="evenodd" clip-rule="evenodd" d="M3.07767 46.4484H7.80583C8.6174 46.451 9.3969 46.1317 9.97349 45.5606C10.5501 44.9895 10.8767 44.213 10.8819 43.4015V22.7672L12.4482 43.6296C12.5081 44.4403 12.8851 45.1798 13.5081 45.7121C13.8143 45.9754 14.1695 46.1755 14.5532 46.301C14.937 46.4265 15.3418 46.4749 15.7443 46.4435L20.4596 46.0956C20.8622 46.0674 21.2552 45.9599 21.6162 45.7794C21.9772 45.599 22.299 45.349 22.5631 45.0439C23.0971 44.429 23.3609 43.641 23.301 42.8287L21.3301 16.6102L24.9062 43.7979C25.016 44.603 25.4404 45.3317 26.0863 45.8245C26.7323 46.3174 27.5473 46.5341 28.3528 46.4274L33.0421 45.8222C33.8576 45.717 34.5825 45.3044 35.0842 44.6588C35.5858 44.0147 35.8026 43.2121 35.6958 42.4063L34.9579 36.7817L37.5243 44.3707C37.7873 45.1411 38.3448 45.7759 39.0748 46.1362C39.8047 46.4964 40.6477 46.5528 41.4191 46.2931L45.9013 44.8044C46.283 44.6794 46.6362 44.4802 46.9406 44.2182C47.245 43.9562 47.4947 43.6366 47.6751 43.2778C47.8556 42.919 47.9633 42.528 47.9921 42.1274C48.021 41.7268 47.9703 41.3245 47.8431 40.9435L41.411 21.9257C41.1463 21.1563 40.5882 20.5227 39.8583 20.163C39.1285 19.8032 38.2861 19.7464 37.5146 20.005L33.0324 21.4937C33.0049 21.5018 32.9806 21.5163 32.9515 21.5277L31.2767 8.76876C31.1649 7.96463 30.74 7.23721 30.0945 6.74477C29.449 6.25233 28.6352 6.03473 27.8301 6.13931L23.1408 6.74287C22.6172 6.81067 22.12 7.01273 21.6975 7.32943C21.2751 7.64614 20.9417 8.06672 20.7298 8.55032L20.2977 2.82216C20.2667 2.42096 20.1567 2.02984 19.9742 1.67121C19.7917 1.31257 19.5402 0.993485 19.2342 0.732227C18.9281 0.470968 18.5735 0.272679 18.1907 0.148721C17.8079 0.024763 17.4043 -0.0224261 17.0032 0.00985954L12.2848 0.357756C11.4466 0.419245 10.7136 0.81083 10.2007 1.39335C9.91387 1.03305 9.54974 0.741852 9.1352 0.541305C8.72066 0.340758 8.26633 0.235998 7.80583 0.234779H3.07767C2.26554 0.231765 1.48538 0.551055 0.908392 1.12259C0.331401 1.69412 0.00470866 2.4712 0 3.28332V43.4015C0 45.0811 1.38026 46.45 3.07767 46.45V46.4484Z" fill="#13C1AC" fill-opacity="0.7"/>
<path fill-rule="evenodd" clip-rule="evenodd" d="M7.77347 3.28332V43.3691L3.11003 43.4015L3.07767 3.31569L7.77347 3.28332V3.28332ZM17.1974 3.05193L20.1974 43.0244L15.5486 43.4015L12.5162 3.42896L17.1974 3.05193V3.05193ZM28.1926 9.16359L32.6068 42.772L27.9871 43.4015L23.5405 9.79951L28.1926 9.16359V9.16359ZM38.4612 22.9047L44.8819 41.8934L40.4709 43.3918L34.0194 24.4128L38.4612 22.9047V22.9047ZM3.07767 46.4484H7.80583C8.6174 46.451 9.3969 46.1317 9.97349 45.5606C10.5501 44.9895 10.8767 44.213 10.8819 43.4015V22.7672L12.4482 43.6296C12.5081 44.4403 12.8851 45.1798 13.5081 45.7121C13.8143 45.9754 14.1695 46.1755 14.5532 46.301C14.937 46.4265 15.3418 46.4749 15.7443 46.4435L20.4596 46.0956C20.8622 46.0674 21.2552 45.9599 21.6162 45.7794C21.9772 45.599 22.299 45.349 22.5631 45.0439C23.0971 44.429 23.3609 43.641 23.301 42.8287L21.3301 16.6102L24.9062 43.7979C25.016 44.603 25.4404 45.3317 26.0863 45.8245C26.7323 46.3174 27.5473 46.5341 28.3528 46.4274L33.0421 45.8222C33.8576 45.717 34.5825 45.3044 35.0842 44.6588C35.5858 44.0147 35.8026 43.2121 35.6958 42.4063L34.9579 36.7817L37.5243 44.3707C37.7873 45.1411 38.3448 45.7759 39.0748 46.1362C39.8047 46.4964 40.6477 46.5528 41.4191 46.2931L45.9013 44.8044C46.283 44.6794 46.6362 44.4802 46.9406 44.2182C47.245 43.9562 47.4947 43.6366 47.6751 43.2778C47.8556 42.919 47.9633 42.528 47.9921 42.1274C48.021 41.7268 47.9703 41.3245 47.8431 40.9435L41.411 21.9257C41.1463 21.1563 40.5882 20.5227 39.8583 20.163C39.1285 19.8032 38.2861 19.7464 37.5146 20.005L33.0324 21.4937C33.0049 21.5018 32.9806 21.5163 32.9515 21.5277L31.2767 8.76876C31.1649 7.96463 30.74 7.23721 30.0945 6.74477C29.449 6.25233 28.6352 6.03473 27.8301 6.13931L23.1408 6.74287C22.6172 6.81067 22.12 7.01273 21.6975 7.32943C21.2751 7.64614 20.9417 8.06672 20.7298 8.55032L20.2977 2.82216C20.2667 2.42096 20.1567 2.02984 19.9742 1.67121C19.7917 1.31257 19.5402 0.993485 19.2342 0.732227C18.9281 0.470968 18.5735 0.272679 18.1907 0.148721C17.8079 0.024763 17.4043 -0.0224261 17.0032 0.00985954L12.2848 0.357756C11.4466 0.419245 10.7136 0.81083 10.2007 1.39335C9.91387 1.03305 9.54974 0.741852 9.1352 0.541305C8.72066 0.340758 8.26633 0.235998 7.80583 0.234779H3.07767C2.26554 0.231765 1.48538 0.551055 0.908392 1.12259C0.331401 1.69412 0.00470866 2.4712 0 3.28332V43.4015C0 45.0811 1.38026 46.45 3.07767 46.45V46.4484Z" fill="#0F9989"/>
<path fill-rule="evenodd" clip-rule="evenodd" d="M17.1976 3.05194L20.1976 43.0245L15.5487 43.4015L12.5164 3.42896L17.1976 3.05194ZM38.4614 22.9047L44.8821 41.8934L40.4711 43.3918L34.0196 24.4128L38.4614 22.9047Z" fill="white" fill-opacity="0.5"/>
</svg>

<svg width="48" height="47" viewBox="0 0 48 47" fill="none" xmlns="http://www.w3.org/2000/svg"><path fill-rule="evenodd" clip-rule="evenodd" d="M3.078 46.448h4.728a3.066 3.066 0 003.076-3.047V22.767l1.566 20.863c.06.81.437 1.55 1.06 2.082a3.064 3.064 0 002.236.731l4.716-.347a3.065 3.065 0 002.103-1.052 3.02 3.02 0 00.738-2.215l-1.97-26.219 3.575 27.188a3.071 3.071 0 003.447 2.63l4.69-.606a3.064 3.064 0 002.041-1.163 3.003 3.003 0 00.612-2.253l-.738-5.624 2.566 7.589a3.078 3.078 0 003.895 1.922l4.482-1.489a3.047 3.047 0 001.942-3.86l-6.432-19.018a3.083 3.083 0 00-3.896-1.921l-4.483 1.489c-.027.008-.051.022-.08.034l-1.675-12.76A3.079 3.079 0 0027.83 6.14l-4.69.604a3.062 3.062 0 00-2.41 1.807l-.432-5.728A3.057 3.057 0 0017.003.01l-4.718.348A3.067 3.067 0 0010.2 1.393 3.072 3.072 0 007.806.235H3.078A3.066 3.066 0 000 3.283v40.118c0 1.68 1.38 3.049 3.078 3.049v-.002z" fill="#13C1AC" fill-opacity=".7"/><path fill-rule="evenodd" clip-rule="evenodd" d="M7.773 3.283V43.37l-4.663.032-.032-40.085 4.695-.033zm9.424-.231l3 39.972-4.648.377L12.516 3.43l4.681-.377zm10.996 6.112l4.414 33.608-4.62.63L23.541 9.8l4.652-.636zm10.268 13.74l6.42 18.99-4.41 1.498-6.452-18.98 4.442-1.507zM3.078 46.449h4.728a3.066 3.066 0 003.076-3.047V22.767l1.566 20.863c.06.81.437 1.55 1.06 2.082a3.064 3.064 0 002.236.731l4.716-.347a3.065 3.065 0 002.103-1.052 3.02 3.02 0 00.738-2.215l-1.97-26.219 3.575 27.188a3.071 3.071 0 003.447 2.63l4.69-.606a3.064 3.064 0 002.041-1.163 3.003 3.003 0 00.612-2.253l-.738-5.624 2.566 7.589a3.078 3.078 0 003.895 1.922l4.482-1.489a3.047 3.047 0 001.942-3.86l-6.432-19.018a3.083 3.083 0 00-3.896-1.921l-4.483 1.489c-.027.008-.051.022-.08.034l-1.675-12.76A3.079 3.079 0 0027.83 6.14l-4.69.604a3.062 3.062 0 00-2.41 1.807l-.432-5.728A3.057 3.057 0 0017.003.01l-4.718.348A3.067 3.067 0 0010.2 1.393 3.072 3.072 0 007.806.235H3.078A3.066 3.066 0 000 3.283v40.118c0 1.68 1.38 3.049 3.078 3.049v-.002z" fill="#0F9989"/><path fill-rule="evenodd" clip-rule="evenodd" d="M17.198 3.052l3 39.973-4.65.377-3.032-39.973 4.682-.377zM38.46 22.905l6.421 18.988-4.41 1.499-6.452-18.98 4.441-1.507z" fill="#fff" fill-opacity=".5"/></svg>
